X:4015
T:Doon the Brae
T:Old Crossroads, The
R:March
C:Trad.
O:Scotland
Z:Paul Hardy's Session Tunebook 2022 (see www.paulhardy.net). Creative Commons cc by-nc-sa licenced.
M:4/4
L:1/8
Q:1/4=120
K:Em
B,|"Em"E3F G3A|B2e2 "Bm"dB2A|"Em"G>FGB "D"AFDE|"Bm"F2EF D2B,2|
"Em"E3F G3A|B2e2 "Bm"dB2A|"Em"G>FGB "D"AFDE|"Bm"F2E2 "Em"E3:|
|:A|"Em"B2e2 e2de|"Bm"f>gfe dB2B|"D"A3B d3e|"Bm"dBAB d2BA|
"Em"B2e2 e2de|"Bm"f>gfe dB2A|"Em"G>FGB "D"AFDE|"Bm"F2E2 "Em"E3:|

